X:1
T:Hallelujah Chorus (Messiah)
C:George Frideric Handel
M:4/4
L:1/4
Q:1/4=116
K:D
|: d d d2 | d d d2 | d e f g | a3 f |
e e e2 | e f g a | f2 d2 | D3 z |
A B c d | e2 f2 | g f e d | e4 |
d d d2 | e d c B | A2 D2 | D4 :|
d2 d2 | e2 e2 | f e d e | f4 |
d2 d2 | e2 e2 | f e d c | B4 |
A B c d | e f g a | f d A F | D4 |]
